X:1
T: The Silken Wallet
C:
R:Jig
Q:180
K:G
M:6/8
L:1/16
|:c2|B2G2E2 E2F2E2|A2F2D2 D2E2D2|B2G2E2 G2A2B2|c6 B4A2|
B2G2E2 E2F2E2|A2F2D2 D2E2D2|E4c2 B2c2A2|1G6G4c2:|2G6G4D2|
|:G2A2G2 G2B2d2|e2g2e2 d2B2G2|G2A2G2 G2B2d2|e4f2 g6|
|1G2A2G2 G2B2d2|e2g2e2 d2B2G2|A2G2E2 E2D2E2|c4B2 A4D2:|
|2a2g2f2 g2f2e2|f2e2d2 e2d2B2|c2B2A2 B2A2G2|E4F2 G4||
